public/images/arrow-right.svg

<svg width="24" height="24" viewBox="0 0 24 24" fill="none" xmlns="http://www.w3.org/2000/svg">
<path d="M14.523 18.7872C14.523 18.7872 19.024 14.2822 20.778 12.5272C20.924 12.3812 20.997 12.1892 20.997 11.9972C20.997 11.8052 20.924 11.6142 20.778 11.4672C19.025 9.71319 14.523 5.20919 14.523 5.20919C14.379 5.06419 14.189 4.99219 13.999 4.99219C13.806 4.99219 13.614 5.06619 13.467 5.21319C13.174 5.50519 13.172 5.97919 13.463 6.26919L18.441 11.2472H3.74902C3.33502 11.2472 2.99902 11.5832 2.99902 11.9972C2.99902 12.4112 3.33502 12.7472 3.74902 12.7472H18.441L13.462 17.7262C13.173 18.0152 13.176 18.4882 13.468 18.7802C13.616 18.9282 13.809 19.0022 14.001 19.0022C14.191 19.0022 14.379 18.9302 14.523 18.7872Z" fill="#005C13"/>
</svg>

<svg clip-rule="evenodd" fill-rule="evenodd" stroke-linejoin="round" stroke-miterlimit="2" viewBox="0 0 24 24" xmlns="http://www.w3.org/2000/svg"><path fill="#0aa8a7" d="m14.523 18.787s4.501-4.505 6.255-6.26c.146-.146.219-.338.219-.53s-.073-.383-.219-.53c-1.753-1.754-6.255-6.258-6.255-6.258-.144-.145-.334-.217-.524-.217-.193 0-.385.074-.532.221-.293.292-.295.766-.004 1.056l4.978 4.978h-14.692c-.414 0-.75.336-.75.75s.336.75.75.75h14.692l-4.979 4.979c-.289.289-.286.762.006 1.054.148.148.341.222.533.222.19 0 .378-.072.522-.215z" fill-rule="nonzero"/></svg>
